templates/main/source/images/dostavka-moskva.svg

<?xml version="1.0" encoding="utf-8"?>
<svg width="50px" height="36px" viewBox="0 0 50 36" version="1.1" xmlns:xlink="http://www.w3.org/1999/xlink" xmlns="http://www.w3.org/2000/svg">
  <desc>Created with Lunacy</desc>
  <g id="dostavka-moskva">
    <path d="M0.74 24.71L27.94 24.71C28.3295 24.6998 28.6443 24.3894 28.66 24L28.66 2.19005C28.6491 0.981203 27.6689 0.00546757 26.46 4.6854e-05L2.22 4.6854e-05C1.00332 -0.00550824 0.0109981 0.973406 0 2.19005L0 24C0.0161048 24.397 0.342744 24.7104 0.74 24.71ZM15.96 5.93005L22.21 12.11C22.3823 12.2778 22.4804 12.5075 22.4822 12.748C22.4841 12.9884 22.3897 13.2196 22.22 13.39L15.97 19.58C15.7082 19.8415 15.3153 19.9206 14.9726 19.781C14.63 19.6413 14.4044 19.31 14.4 18.94L14.4 16.38L7.14 16.38C6.89692 16.3827 6.66289 16.288 6.49006 16.1171C6.31723 15.9461 6.21999 15.7131 6.22 15.47L6.22 10.03C6.21999 9.78696 6.31723 9.55397 6.49006 9.38302C6.66289 9.21207 6.89692 9.11738 7.14 9.12005L14.39 9.12005L14.39 6.57005C14.3944 6.20009 14.62 5.86878 14.9626 5.72912C15.3053 5.58946 15.6982 5.66862 15.96 5.93005Z" transform="translate(0.33984375 0)" id="Shape" fill="#8C0014" fill-rule="evenodd" stroke="none" />
    <path d="M45.81 26.0401L50 26.0401L50 12.4601C50.0083 11.2842 49.6596 10.1335 49 9.16007L44.51 2.57007C43.4009 0.9572 41.5674 -0.00447201 39.61 6.77119e-05L32.61 6.77119e-05C32.2201 -0.00259349 31.8452 0.149735 31.5676 0.42354C31.2901 0.697345 31.1326 1.0702 31.13 1.46007L31.13 22.3601L19.81 22.3601C20.8971 23.3067 21.607 24.613 21.81 26.0401L33.81 26.0401C34.2916 23.1008 36.8315 20.9431 39.81 20.9431C42.7885 20.9431 45.3284 23.1008 45.81 26.0401ZM45 9.33007L41.4 4.27007C41.2584 4.0746 41.0314 3.95922 40.79 3.96007L35.23 3.96007C34.8252 3.96003 34.4955 4.28529 34.49 4.69007L34.49 9.74007C34.49 9.93542 34.5683 10.1226 34.7073 10.2598C34.8464 10.397 35.0347 10.4727 35.23 10.4701L44.44 10.4701C44.7024 10.4545 44.9362 10.2991 45.0521 10.0632C45.168 9.82727 45.1481 9.54724 45 9.33007ZM15.74 22.3601C18.2462 22.3876 20.2582 24.4367 20.2399 26.943C20.2216 29.4493 18.1799 31.4688 15.6735 31.4598C13.1672 31.4507 11.1402 29.4164 11.14 26.9101C11.1453 25.6963 11.6332 24.5345 12.4962 23.6809C13.3591 22.8273 14.5262 22.3521 15.74 22.3601ZM39.81 22.3601C42.3162 22.3876 44.3282 24.4367 44.3099 26.943C44.2916 29.4493 42.2499 31.4688 39.7435 31.4598C37.2372 31.4507 35.2102 29.4164 35.21 26.9101C35.2265 24.3845 37.2844 22.349 39.81 22.3601ZM11.74 22.3601L0.74 22.3601C0.335183 22.36 0.0054705 22.6853 0 23.0901L0 25.3101C0.0054705 25.7148 0.335183 26.0401 0.74 26.0401L9.74 26.0401C9.94298 24.613 10.6529 23.3067 11.74 22.3601ZM17.9799 26.9003C17.9909 28.15 16.9896 29.1736 15.74 29.1901C14.4791 29.1956 13.451 28.1809 13.44 26.9201C13.4401 25.6703 14.4504 24.6557 15.7001 24.6503C16.9499 24.6449 17.9689 25.6506 17.9799 26.9003ZM42.0499 26.9003C42.0609 28.15 41.0596 29.1736 39.81 29.1901C38.5491 29.1956 37.521 28.1809 37.51 26.9201C37.5101 25.6703 38.5204 24.6557 39.7701 24.6503C41.0199 24.6449 42.0389 25.6506 42.0499 26.9003Z" transform="translate(0 4.540039)" id="Shape" fill="#A6A6A6" fill-rule="evenodd" stroke="none" />
  </g>
</svg>

<svg width="50" height="36" viewBox="0 0 50 36" xmlns:xlink="http://www.w3.org/1999/xlink" xmlns="http://www.w3.org/2000/svg"><g id="dostavka-moskva" fill-rule="evenodd" stroke="none"><path d="M.74 24.71h27.2a.74.74 0 00.72-.71V2.19A2.21 2.21 0 0026.46 0H2.22A2.21 2.21 0 000 2.19V24a.74.74 0 00.74.71zM15.96 5.93l6.25 6.18a.9.9 0 01.01 1.28l-6.25 6.19a.92.92 0 01-1.57-.64v-2.56H7.14a.91.91 0 01-.92-.91v-5.44a.91.91 0 01.92-.91h7.25V6.57a.92.92 0 011.57-.64z" transform="translate(.34)" id="Shape" fill="#8C0014"/><path d="M45.81 26.04H50V12.46a5.81 5.81 0 00-1-3.3l-4.49-6.59A5.93 5.93 0 0039.61 0h-7a1.47 1.47 0 00-1.48 1.46v20.9H19.81a6 6 0 012 3.68h12a6.08 6.08 0 0112 0zM45 9.33l-3.6-5.06a.75.75 0 00-.61-.31h-5.56a.74.74 0 00-.74.73v5.05a.73.73 0 00.74.73h9.21A.73.73 0 0045 9.33zM15.74 22.36a4.55 4.55 0 11-4.6 4.55 4.57 4.57 0 014.6-4.55zm24.07 0a4.55 4.55 0 11-4.6 4.55 4.58 4.58 0 014.6-4.55zm-28.07 0h-11a.74.74 0 00-.74.73v2.22a.74.74 0 00.74.73h9a6 6 0 012-3.68zm6.24 4.54a2.27 2.27 0 01-2.24 2.29 2.29 2.29 0 01-2.3-2.27 2.27 2.27 0 014.54-.02zm24.07 0a2.27 2.27 0 01-2.24 2.29 2.29 2.29 0 01-2.3-2.27 2.27 2.27 0 014.54-.02z" transform="translate(0 4.54)" id="Shape" fill="#A6A6A6"/></g></svg>
